X: 2
T: The Humours Of Westmeath
R: slip jig
M: 9/8
L: 1/8
K: Dmaj
||: d2d dAG FED | d2d dAF G2E | ABc dAG FGA | =cBc E2F G2E :||||: d2g fdf ece | d2g fdf g2e | d2g fdf ece | =cBc E2F G2E | d2g fdf ece | d2g fdf g2e | afd gec d2B | =cBc E2F G2E :||||: DDC | DDC | DDC | CCC :||||: DDA | DDA | DDA | CCC :|| D |


Tune 428	Setting 22575

